X:114
M:6/8
K:D
def gab|fdA ede|f2A ecA|
B2B d2e|d2e fga|d2d e2d|
d2d d2B|
ceA ABc|ddc A2a| gaf g


*****************************


19200 0 1.435553 

<starteh
M:4/4
K:G
~ E2D E2D|G2A AGE|FAG G2E|
~D3 E2E|A2A AGE|DAd eAG|A2G G2A:|
|:cec A2A|cAc B2A|A2d e2B


*****************************


19300 0 1.0346801 

<start (36
T:Singewor Molle Wlock Sorthmay: to eugle Oo Cuthe Court's
T:Seadtiterthy The
T:Weer #77 Jitie


*****************************


19400 0 1.1821135 

<starion |13 f2e def|a2g g2g|e2e f2g|faa (3gfe|f2d d2f|e2A Bcd|e2d c2A|g3 edc|d3 dBd|e2f f2d|e2e fGe|
f3 


*****************************


19500 0 0.65361387 

<start>
T:Mairil Diefly Kestan's sit
y:Anetuna
R:slide
Z:id:hn-slide-55
M:6/8
K:D
d2d e2f|e2A ~d3|e2d ABA


*****************************


19600 0 1.1076121 

<start>
